icons/unlock-24.svg

<svg xmlns="http://www.w3.org/2000/svg" width="24" height="24" viewBox="0 0 24 24"><path d="M7.5 7.25V9h11a2.5 2.5 0 012.5 2.5v8a2.5 2.5 0 01-2.5 2.5h-13A2.5 2.5 0 013 19.5v-8A2.5 2.5 0 015.5 9H6V7.25C6 3.845 8.503 1 12 1c2.792 0 4.971 1.825 5.718 4.31a.75.75 0 11-1.436.432C15.71 3.84 14.079 2.5 12 2.5c-2.578 0-4.5 2.08-4.5 4.75zm-3 4.25v8a1 1 0 001 1h13a1 1 0 001-1v-8a1 1 0 00-1-1h-13a1 1 0 00-1 1z"/></svg>

<svg xmlns="http://www.w3.org/2000/svg" width="24" height="24" viewBox="0 0 24 24">
  <defs/>
  <path d="M7.5,7.25 L7.5,9 L18.5,9 C19.881,9 21,10.119 21,11.5 L21,19.5 C21,20.881 19.881,22 18.5,22 L5.5,22 C4.119,22 3,20.881 3,19.5 L3,11.5 C3,10.119 4.119,9 5.5,9 L6,9 L6,7.25 C6,3.845 8.503,1 12,1 C14.792,1 16.971,2.825 17.718,5.31 C17.803,5.569 17.74,5.853 17.555,6.053 C17.37,6.252 17.092,6.336 16.827,6.272 C16.563,6.207 16.354,6.004 16.282,5.742 C15.71,3.84 14.079,2.5 12,2.5 C9.422,2.5 7.5,4.58 7.5,7.25 Z M4.5,11.5 L4.5,19.5 C4.5,20.052 4.948,20.5 5.5,20.5 L18.5,20.5 C19.052,20.5 19.5,20.052 19.5,19.5 L19.5,11.5 C19.5,10.948 19.052,10.5 18.5,10.5 L5.5,10.5 C4.948,10.5 4.5,10.948 4.5,11.5 Z"/>
</svg>
